X:2858
T:Denne daler skal vandre
C:anon.
O:Germany
Z:Transcribed by Frank Nordberg - http://www.musicaviva.com
F:http://www.abc-notation.com/abcs/de/denne-daler-skal/denne-daler-skal-1.abc
M:C
L:1/4
K:G
GGBB|A/G/A/B/GD|BBdd|c/B/c/d/GB|
ddee|cc/e/d2|BBcc|ddG z|]
W:
W:
W:  From Musica Viva - http://www.musicaviva.com
W:  the Internet center for free sheet music downloads.
